polaris-icons/icons/newicons/EyeDropperMinor.svg

<svg width="20" height="20" viewBox="0 0 20 20" fill="none" xmlns="http://www.w3.org/2000/svg">
<path fill-rule="evenodd" clip-rule="evenodd" d="M14.4195 9.11604L16.5711 6.96442C17.5474 5.98811 17.5474 4.4052 16.5711 3.42889C15.5948 2.45258 14.0119 2.45258 13.0356 3.42889L10.8839 5.58051L9.82324 4.51982C9.53034 4.22693 9.05547 4.22693 8.76258 4.51982C8.46969 4.81272 8.46969 5.28759 8.76258 5.58048L9.82327 6.64117L3.42895 13.0355C2.45264 14.0118 2.45264 15.5947 3.42895 16.571C4.40526 17.5473 5.98817 17.5473 6.96448 16.571L13.3588 10.1767L14.4194 11.2373C14.7123 11.5302 15.1872 11.5302 15.4801 11.2373C15.773 10.9444 15.773 10.4696 15.4801 10.1767L14.4195 9.11604ZM12.2981 9.11604L5.90382 15.5104C5.5133 15.9009 4.88013 15.9009 4.48961 15.5104C4.09908 15.1198 4.09908 14.4867 4.48961 14.0962L10.8839 7.70183L12.2981 9.11604Z" fill="black"/>
</svg>

<svg viewBox="0 0 20 20" fill="none" xmlns="http://www.w3.org/2000/svg"><path fill-rule="evenodd" clip-rule="evenodd" d="m14.42 9.116 2.151-2.152a2.5 2.5 0 0 0-3.535-3.535l-2.152 2.152-1.06-1.061a.75.75 0 0 0-1.061 1.06l1.06 1.061-6.394 6.395a2.5 2.5 0 1 0 3.535 3.535l6.395-6.394 1.06 1.06a.75.75 0 0 0 1.061-1.06l-1.06-1.061Zm-2.122 0-6.394 6.394a1 1 0 0 1-1.414-1.414l6.394-6.394 1.414 1.414Z" fill="#000"/></svg>
